app/img/offer-egg-2.svg

<svg width="26" height="26" viewBox="0 0 26 26" fill="none" xmlns="http://www.w3.org/2000/svg">
<g clip-path="url(#clip0)">
<path d="M23.2912 23.8332H2.70785C1.19118 23.8332 -0.000488281 22.6415 -0.000488281 21.1248V8.12484C-0.000488281 6.60817 1.19118 5.4165 2.70785 5.4165H23.2912C24.8078 5.4165 25.9995 6.60817 25.9995 8.12484V21.1248C25.9995 22.6415 24.8078 23.8332 23.2912 23.8332ZM2.70785 6.49984C1.84118 6.49984 1.08285 7.25817 1.08285 8.12484V21.1248C1.08285 21.9915 1.84118 22.7498 2.70785 22.7498H23.2912C24.1578 22.7498 24.9162 21.9915 24.9162 21.1248V8.12484C24.9162 7.25817 24.1578 6.49984 23.2912 6.49984H2.70785Z" fill="#00F0FF"/>
<path d="M16.791 6.49983C16.466 6.49983 16.2493 6.28316 16.2493 5.95816V3.7915C16.2493 3.4665 16.0327 3.24984 15.7077 3.24984H10.291C9.96601 3.24984 9.74935 3.4665 9.74935 3.7915V5.95816C9.74935 6.28316 9.53268 6.49983 9.20768 6.49983C8.88268 6.49983 8.66602 6.28316 8.66602 5.95816V3.7915C8.66602 2.92484 9.42435 2.1665 10.291 2.1665H15.7077C16.5743 2.1665 17.3327 2.92484 17.3327 3.7915V5.95816C17.3327 6.28316 17.116 6.49983 16.791 6.49983Z" fill="#00F0FF"/>
<path d="M12.9995 15.1668C12.8912 15.1668 12.8912 15.1668 12.7829 15.1668L0.324518 10.8334C0.107852 10.7251 -0.108815 10.4001 -0.000481689 10.0751C0.107852 9.85843 0.432852 9.64176 0.757852 9.7501L12.9995 14.0834L25.2412 9.7501C25.5662 9.64176 25.7829 9.7501 25.8912 10.0751C25.9995 10.4001 25.8912 10.6168 25.5662 10.7251L13.1079 15.0584C13.1079 15.1668 13.1079 15.1668 12.9995 15.1668Z" fill="#00F0FF"/>
</g>
<defs>
<clipPath id="clip0">
<rect width="26" height="26" fill="white" transform="translate(-0.000488281)"/>
</clipPath>
</defs>
</svg>

<svg width="26" height="26" fill="none" xmlns="http://www.w3.org/2000/svg"><g clip-path="url(#clip0)" fill="#00F0FF"><path d="M23.291 23.833H2.708A2.682 2.682 0 010 21.125v-13a2.682 2.682 0 012.708-2.708H23.29A2.682 2.682 0 0126 8.125v13a2.682 2.682 0 01-2.709 2.708zM2.708 6.5c-.867 0-1.625.758-1.625 1.625v13c0 .866.758 1.625 1.625 1.625H23.29c.867 0 1.625-.759 1.625-1.625v-13c0-.867-.758-1.625-1.625-1.625H2.708z"/><path d="M16.791 6.5c-.325 0-.542-.217-.542-.542V3.791c0-.325-.216-.541-.541-.541H10.29c-.325 0-.542.216-.542.542v2.166c0 .325-.216.542-.541.542-.325 0-.542-.217-.542-.542V3.791c0-.866.758-1.624 1.625-1.624h5.417c.866 0 1.625.758 1.625 1.625v2.166c0 .325-.217.542-.542.542zM13 15.167h-.217L.325 10.833C.108 10.725-.11 10.4 0 10.075c.108-.217.433-.433.758-.325L13 14.083 25.24 9.75c.325-.108.542 0 .65.325.109.325 0 .542-.325.65l-12.458 4.333c0 .109 0 .109-.109.109z"/></g><defs><clipPath id="clip0"><path fill="#fff" d="M0 0h26v26H0z"/></clipPath></defs></svg>
